X:1
T:Scrappy's Challenge
T:Thirds
R:Hornpipe
C:Colin Elder
M:2/4
L:1/16
K:D
[|: "2nd time only" f2 | {g}A2{gdedG}d2 {g}fe{g}dA | {gBeBG}B2gB {G}BG{g}dB | {gAGAG}A2{d}ce {g}eA{d}ce | {g}dAe{g}(f f)e{g}dB |
{g}A2{gdedG}d2 {g}fe{g}dA | {gBeBG}B2gB {G}BG{g}dB | {g}Acd{gef}(e e)d{g}cB | {g}Ae{g}ec {Gdc}d2 :|]
[|: {g}fg | {ag}a2Aa dafA | {gBeBG}B2g{a}(B B)g{a}dB | {gcd}c2{g}B{d}A {g}ecA{g}(c | c)A{g}dA {g}eA{g}ce |
["1st" {ag}a2Aa dafA | {gBeBG}B2g{a}(B B)g{a}dB | {g}Acd{gef}(e e)d{g}cB | {g}Ae{g}ec {Gdc}d2 :|]
["2nd" {g}A2{gdedG}d2 {g}fe{g}dA | {gBeBG}B2gB {G}BG{g}dB [M:6/8] "Jig Time" | {g}A2c2d2 {g}(e6| e6) {g}(A6 | (A6) A6) | (G6 (G6) | (G6) G6) |]

